public/assets/items/chest-old.svg

<svg width="240" height="240" viewBox="0 0 240 240" fill="none" xmlns="http://www.w3.org/2000/svg">
<g clip-path="url(#clip0)">
<g filter="url(#filter0_d)">
<path fill-rule="evenodd" clip-rule="evenodd" d="M51 79H52.5H188.398H189.898V79.0104H188.972V79.5069L189.898 79.9699V80.1379L189.469 80.9966L189.898 82.2846V151.708L189.469 152.996L188.972 153.989L189.898 154.452V155.05L189.469 155.479L188.972 157.465L189.898 158.391V159.948V161.448H188.398H52.5H51V159.948V97.4515L51.4278 97.8793L51.9244 96.8862V94.9L51 95.3622V80.5V79ZM54 82V99.9073H101.632V98.1351V95.1351C104.519 95.1351 106.859 92.7949 106.859 89.9082H109.859H131.039H134.039C134.039 92.7949 136.379 95.1351 139.266 95.1351V96.1192L138.275 96.9358L138.771 97.9289L138.275 98.922L139.268 99.9151V99.9073H186.898V98.8509L187.87 97.8792V96.8862L187.373 96.3896L186.898 95.4395V82H54ZM139.266 102.907V112.906H166.582H169.582C169.582 115.793 171.922 118.133 174.808 118.133V121.133V132.144L174.314 132.638V133.631L173.818 134.127L174.314 134.624H174.808V138.131V141.131C171.922 141.131 169.582 143.472 169.582 146.358H167.618L166.627 144.873L164.641 144.376L161.662 145.866L160.669 145.369L158.691 146.358H127.387L125.91 145.866L123.924 145.369L123.43 146.358H74.3169H71.3169V145.313C71.3169 142.426 68.9768 140.086 66.0901 140.086V137.086V122.836L66.4029 122.21L66.8995 121.714L66.0901 121.309V121.133V121.033L66.4029 120.721L66.0901 120.095V118.133C68.9768 118.133 71.3169 115.793 71.3169 112.906H74.3169H97.183L98.1529 113.392H99.6425L101.132 113.888L101.623 112.906H101.629V112.945L102.125 112.448L102.622 111.455L102.125 110.958L101.632 109.972V102.907H54V103.893L53.1162 104.334V105.824L53.6128 106.321L54 107.095V158.448H186.898V102.907H139.266ZM101.632 115.906H73.7528C72.9181 118.037 71.2205 119.734 69.0901 120.569V123.992L68.8858 124.196V124.693L69.0901 124.897V125.628L68.3892 126.679L68.8858 127.176V127.672L69.0901 127.877V137.65C71.5586 138.617 73.446 140.743 74.0833 143.358H167.146C167.98 141.228 169.678 139.53 171.808 138.696V120.569C169.678 119.734 167.98 118.037 167.146 115.906H139.266L139.266 118.269V121.269C136.379 121.269 134.039 123.609 134.039 126.496V127.542H133.228L132.862 127.176H132.366L131.634 127.542H131.039H130.81L130.379 126.679L129.386 127.176L129.02 127.542H109.859H106.859V126.496C106.859 123.609 104.519 121.269 101.632 121.269V118.269V115.906ZM109.626 124.542C108.988 121.926 107.101 119.801 104.632 118.833V97.571C106.763 96.7362 108.46 95.0387 109.295 92.9082H131.603C132.438 95.0387 134.135 96.7362 136.266 97.571V118.833C133.797 119.801 131.91 121.926 131.272 124.542H109.626ZM118.495 108.241C117.171 107.54 116.268 106.147 116.268 104.543C116.268 102.234 118.14 100.362 120.449 100.362C121.481 100.362 122.426 100.736 123.155 101.355H123.924V101.852L124.421 102.348L124.158 102.611C124.46 103.189 124.631 103.846 124.631 104.543C124.631 106.147 123.729 107.539 122.405 108.241C122.119 108.392 121.815 108.511 121.495 108.593V108.593V114.088V117.088H119.405V116.698L118.959 116.252V115.755L119.405 115.309V114.088V108.593L119.404 108.593C119.085 108.511 118.78 108.392 118.495 108.241ZM116.405 110.477C114.512 109.185 113.268 107.012 113.268 104.543C113.268 100.577 116.483 97.362 120.449 97.362C124.416 97.362 127.631 100.577 127.631 104.543C127.631 107.011 126.388 109.184 124.495 110.477V117.088V120.088H121.495H119.405H116.405V117.088V110.477ZM80.7243 79.0104H86.6829L85.6898 80.0035L83.7036 80.5L83.207 79.5069L81.7174 80.0035L80.7243 79.0104ZM60.8624 158.458H57.8831L57.3866 159.451L60.3659 158.955L60.8624 158.458ZM109.524 161.438L110.517 160.445L111.51 160.941H112.503L113.496 161.438H109.524ZM174.154 79.5069L175.147 79.0104H171.175L170.678 79.5069L172.665 79.2586L174.154 79.5069Z" fill="white"/>
</g>
<g opacity="0.1" filter="url(#filter1_f)">
<rect x="209.122" y="134.366" width="190.94" height="61.5328" transform="rotate(178.575 209.122 134.366)" fill="#61FFFF"/>
<rect x="208.467" y="133.743" width="189.661" height="60.2545" transform="rotate(178.575 208.467 133.743)" stroke="black" stroke-width="1.27836"/>
</g>
</g>
<defs>
<filter id="filter0_d" x="36" y="64" width="168.898" height="112.448" filterUnits="userSpaceOnUse" color-interpolation-filters="sRGB">
<feFlood flood-opacity="0" result="BackgroundImageFix"/>
<feColorMatrix in="SourceAlpha" type="matrix" values="0 0 0 0 0 0 0 0 0 0 0 0 0 0 0 0 0 0 127 0"/>
<feOffset/>
<feGaussianBlur stdDeviation="7.5"/>
<feColorMatrix type="matrix" values="0 0 0 0 1 0 0 0 0 1 0 0 0 0 1 0 0 0 0.75 0"/>
<feBlend mode="normal" in2="BackgroundImageFix" result="effect1_dropShadow"/>
<feBlend mode="normal" in="SourceGraphic" in2="effect1_dropShadow" result="shape"/>
</filter>
<filter id="filter1_f" x="-33.2891" y="22.8521" width="292.411" height="166.262" filterUnits="userSpaceOnUse" color-interpolation-filters="sRGB">
<feFlood flood-opacity="0" result="BackgroundImageFix"/>
<feBlend mode="normal" in="SourceGraphic" in2="BackgroundImageFix" result="shape"/>
<feGaussianBlur stdDeviation="25" result="effect1_foregroundBlur"/>
</filter>
<clipPath id="clip0">
<rect width="240" height="240" fill="white"/>
</clipPath>
</defs>
</svg>

<svg width="240" height="240" fill="none" xmlns="http://www.w3.org/2000/svg"><g filter="url(#filter0_f)"><path fill-rule="evenodd" clip-rule="evenodd" d="M51 79h138.898v.01h-.926v.497l.926.463v.168l-.429.859.429 1.287v69.424l-.429 1.288-.497.993.926.463v.598l-.429.429-.497 1.986.926.926v3.057H51V97.451l.428.428.496-.993V94.9l-.924.462V79zm3 3v17.907h47.632v-4.772a5.227 5.227 0 0 0 5.227-5.227h27.18a5.227 5.227 0 0 0 5.227 5.227v.984l-.991.817.496.993-.496.993.993.993v-.008h47.63v-1.056l.972-.972v-.993l-.497-.496-.475-.95V82H54zm85.266 20.907v9.999h30.316a5.227 5.227 0 0 0 5.226 5.227v14.011l-.494.494v.993l-.496.496.496.497h.494v6.507a5.227 5.227 0 0 0-5.226 5.227h-1.964l-.991-1.485-1.986-.497-2.979 1.49-.993-.497-1.978.989h-31.303l-1.478-.492-1.986-.497-.494.989H71.317v-1.045a5.227 5.227 0 0 0-5.227-5.227v-17.25l.313-.626.496-.496-.809-.405v-.276l.313-.312-.313-.626v-1.962a5.227 5.227 0 0 0 5.227-5.227h25.866l.97.486h1.49l1.489.496.491-.982h.006v.039l.496-.497.497-.993-.497-.497-.493-.986v-7.065H54v.986l-.884.441v1.49l.497.497.387.774v51.353h132.898v-55.541h-47.632zm-37.634 12.999h-27.88a8.253 8.253 0 0 1-4.662 4.663v3.423l-.204.204v.497l.204.204v.731l-.7 1.051.496.497v.496l.204.205v9.773a8.244 8.244 0 0 1 4.993 5.708h93.063a8.25 8.25 0 0 1 4.662-4.662v-18.127a8.25 8.25 0 0 1-4.662-4.663h-27.88V121.269a5.227 5.227 0 0 0-5.227 5.227v1.046h-.811l-.366-.366h-.496l-.732.366h-.824l-.431-.863-.993.497-.366.366h-22.161v-1.046a5.227 5.227 0 0 0-5.227-5.227V115.906zm7.994 8.636a8.247 8.247 0 0 0-4.994-5.709V97.571a8.253 8.253 0 0 0 4.663-4.663h22.308a8.253 8.253 0 0 0 4.663 4.663v21.262a8.247 8.247 0 0 0-4.994 5.709h-21.646zm8.869-16.301a4.181 4.181 0 1 1 4.66-6.886h.769v.497l.497.496-.263.263a4.182 4.182 0 0 1-2.663 5.982V117.088h-2.09v-.39l-.446-.446v-.497l.446-.446v-6.716h-.001a4.148 4.148 0 0 1-.909-.352zm-2.09 2.236a7.18 7.18 0 0 1 4.044-13.115 7.181 7.181 0 0 1 4.046 13.115v9.611h-8.09v-9.611zM80.725 79.01h5.958l-.993.993-1.986.497-.497-.993-1.49.496-.993-.993zm-19.863 79.448h-2.979l-.496.993 2.979-.496.496-.497zm48.662 2.98l.993-.993.993.496h.993l.993.497h-3.972zm64.63-81.931l.993-.497h-3.972l-.497.497 1.987-.248 1.489.248z" fill="#fff"/></g><path fill-rule="evenodd" clip-rule="evenodd" d="M51 79h138.898v.01h-.926v.497l.926.463v.168l-.429.859.429 1.287v69.424l-.429 1.288-.497.993.926.463v.598l-.429.429-.497 1.986.926.926v3.057H51V97.451l.428.428.496-.993V94.9l-.924.462V79zm3 3v17.907h47.632v-4.772a5.227 5.227 0 0 0 5.227-5.227h27.18a5.227 5.227 0 0 0 5.227 5.227v.984l-.991.817.496.993-.496.993.993.993v-.008h47.63v-1.056l.972-.972v-.993l-.497-.496-.475-.95V82H54zm85.266 20.907v9.999h30.316a5.227 5.227 0 0 0 5.226 5.227v14.011l-.494.494v.993l-.496.496.496.497h.494v6.507a5.227 5.227 0 0 0-5.226 5.227h-1.964l-.991-1.485-1.986-.497-2.979 1.49-.993-.497-1.978.989h-31.303l-1.478-.492-1.986-.497-.494.989H71.317v-1.045a5.227 5.227 0 0 0-5.227-5.227v-17.25l.313-.626.496-.496-.809-.405v-.276l.313-.312-.313-.626v-1.962a5.227 5.227 0 0 0 5.227-5.227h25.866l.97.486h1.49l1.489.496.491-.982h.006v.039l.496-.497.497-.993-.497-.497-.493-.986v-7.065H54v.986l-.884.441v1.49l.497.497.387.774v51.353h132.898v-55.541h-47.632zm-37.634 12.999h-27.88a8.253 8.253 0 0 1-4.662 4.663v3.423l-.204.204v.497l.204.204v.731l-.7 1.051.496.497v.496l.204.205v9.773a8.244 8.244 0 0 1 4.993 5.708h93.063a8.25 8.25 0 0 1 4.662-4.662v-18.127a8.25 8.25 0 0 1-4.662-4.663h-27.88V121.269a5.227 5.227 0 0 0-5.227 5.227v1.046h-.811l-.366-.366h-.496l-.732.366h-.824l-.431-.863-.993.497-.366.366h-22.161v-1.046a5.227 5.227 0 0 0-5.227-5.227V115.906zm7.994 8.636a8.247 8.247 0 0 0-4.994-5.709V97.571a8.253 8.253 0 0 0 4.663-4.663h22.308a8.253 8.253 0 0 0 4.663 4.663v21.262a8.247 8.247 0 0 0-4.994 5.709h-21.646zm8.869-16.301a4.181 4.181 0 1 1 4.66-6.886h.769v.497l.497.496-.263.263a4.182 4.182 0 0 1-2.663 5.982V117.088h-2.09v-.39l-.446-.446v-.497l.446-.446v-6.716h-.001a4.129 4.129 0 0 1-.909-.352zm-2.09 2.236a7.18 7.18 0 0 1 4.044-13.115 7.181 7.181 0 0 1 4.046 13.115v9.611h-8.09v-9.611zM80.725 79.01h5.958l-.993.993-1.986.497-.497-.993-1.49.496-.993-.993zm-19.863 79.448h-2.979l-.496.993 2.979-.496.496-.497zm48.662 2.98l.993-.993.993.496h.993l.993.497h-3.972zm64.63-81.931l.993-.497h-3.972l-.497.497 1.987-.248 1.489.248z" fill="#fff"/><defs><filter id="filter0_f" x="36" y="64" width="168.898" height="112.448" filterUnits="userSpaceOnUse" color-interpolation-filters="sRGB"><feFlood flood-opacity="0" result="BackgroundImageFix"/><feBlend in="SourceGraphic" in2="BackgroundImageFix" result="shape"/><feGaussianBlur stdDeviation="7.5" result="effect1_foregroundBlur"/></filter></defs></svg>
